svg/u2757.svg

<svg viewBox="0 0 128 128" xmlns="http://www.w3.org/2000/svg">
  <path d="M69.8,88.1l1.8-80c0.1-2.2-1.8-4.1-4-4.1H55.9c-2.3,0-4.1,1.9-4,4.1l1.8,80c0.1,2.2,1.8,3.9,4,3.9h8 C67.9,92,69.7,90.3,69.8,88.1z" fill="#F44336"/>
  <g>
    <path d="M64,50c0.3-1.9-0.5-26.2-0.5-26.2s0.1-3.5-2.8-3.8 c-2.8-0.3-3.8,2.3-3.8,4.1c0,1.8,0.4,21.5,0.6,23.3c0.1,1.8,1.9,3.7,3.6,4.2S63.8,51.4,64,50z" opacity="0.2" fill="#FFFFFF" enable-background="new "/>
    <circle cx="59.6" cy="13.4" r="3.3" opacity="0.2" fill="#FFFFFF" enable-background="new "/>
  </g>
  <circle cx="64.1" cy="112" r="12" fill="#CC3333"/>
  <circle cx="62.4" cy="112" r="10.3" fill="#F44336"/>
  <path d="M56.5,108.4c1.2-1.8,3.8-3.3,6.5-3.7c0.7-0.1,1.3-0.1,1.9,0.1 c0.4,0.2,0.8,0.6,0.5,1c-0.2,0.4-0.7,0.5-1.1,0.6c-2.5,0.7-4.8,2.4-6.2,4.4c-0.5,0.8-1.4,2.9-2.4,2.4 C54.7,112.5,55,110.6,56.5,108.4z" opacity="0.2" fill="#FFFFFF" enable-background="new "/>
  <path d="M71.9,4h-4.3c2.3,0,4.1,1.9,4,4.1l-1.8,80c-0.1,2.2-1.8,3.9-4,3.9H70c2.2,0,4-1.7,4-3.9l1.8-80 C76,5.9,74.1,4,71.9,4z" fill="#CC3333"/>
</svg>

<svg viewBox="0 0 128 128" xmlns="http://www.w3.org/2000/svg">
  <defs/>
  <path d="M69.8,88.1 L71.6,8.1 C71.7,5.9 69.8,4 67.6,4 L55.9,4 C53.6,4 51.8,5.9 51.9,8.1 L53.7,88.1 C53.8,90.3 55.5,92 57.7,92 L65.7,92 C67.9,92 69.7,90.3 69.8,88.1 Z" fill="#F44336"/>
  <path d="M64,50 C64.3,48.1 63.5,23.8 63.5,23.8 C63.5,23.8 63.6,20.3 60.7,20 C57.9,19.7 56.9,22.3 56.9,24.1 C56.9,25.9 57.3,45.6 57.5,47.4 C57.6,49.2 59.4,51.1 61.1,51.6 C62.8,52.1 63.8,51.4 64,50 Z" fill="#FFFFFF" opacity="0.2"/>
  <path d="M62.9,13.4 A3.3 3.3 0 1 1 56.3,13.4 A3.3 3.3 0 1 1 62.9,13.4 Z" fill="#FFFFFF" opacity="0.2"/>
  <path d="M76.1,112 A12 12 0 1 1 52.1,112 A12 12 0 1 1 76.1,112 Z" fill="#CC3333"/>
  <path d="M72.7,112 A10.3 10.3 0 1 1 52.1,112 A10.3 10.3 0 1 1 72.7,112 Z" fill="#F44336"/>
  <path d="M56.5,108.4 C57.7,106.6 60.3,105.1 63,104.7 C63.7,104.6 64.3,104.6 64.9,104.8 C65.3,105 65.7,105.4 65.4,105.8 C65.2,106.2 64.7,106.3 64.3,106.4 C61.8,107.1 59.5,108.8 58.1,110.8 C57.6,111.6 56.7,113.7 55.7,113.2 C54.7,112.5 55,110.6 56.5,108.4 Z" fill="#FFFFFF" opacity="0.2"/>
  <path d="M71.9,4 L67.6,4 C69.9,4 71.7,5.9 71.6,8.1 L69.8,88.1 C69.7,90.3 68,92 65.8,92 L70,92 C72.2,92 74,90.3 74,88.1 L75.8,8.1 C76,5.9 74.1,4 71.9,4 Z" fill="#CC3333"/>
</svg>
